involta/assets/images/arrow-rigth.svg

<svg width="24" height="24" fill="#fff" xmlns="http://www.w3.org/2000/svg" fill-rule="evenodd" clip-rule="evenodd">
    <path d="M21.883 12l-7.527 6.235.644.765 9-7.521-9-7.479-.645.764 7.529 6.236h-21.884v1h21.883z"/>
</svg>

<svg xmlns="http://www.w3.org/2000/svg" viewBox="0 4 24 15">
  <path d="M 21.883 12 L 14.356 18.235 L 15 19 L 24 11.479 L 15 4 l -0.645 0.764 L 21.884 11 H 0 V 12 H 21.883 Z" fill="#fff"/>
</svg>
